X:4
T:4.
Z:Transcrit et/ou corrig par Michel BELLON - 2007-11-08
Z:Pour toute observation mailto:galouvielle@free.fr
M:3/4
L:1/4
Q:"Vivace"
K:Bb
z3 | z3 | z3 | z3 | !f!DLG2 | D3 | ELG2 | A3 ::
z3 | !f!L[BD]L[GD]L[GB,] | z3 | !f!L[AC]L[FC]L[FA,] | z3 | (A>G)F | B(=E>A) | A3 | !mf!Gzz |
Czz | Fzz | B,2!f!F | GD2 | D2D | (E/G/)(D>D) | D2!p!G | G2E | "poco allarg."A,2G, | E(A,>D) | D3 :|
%%footer $D   Galouvielle-MBe 2007 \n-- (--)
